24x24/actions/task-due.svg

<svg height="24" width="24" xmlns="http://www.w3.org/2000/svg"><g transform="translate(4 4)"><path d="m12 7v4l.25 2h1.5l.25-2v-4zm0 7v2h2v-2z" fill="#f44336"/><path d="m9 2a1 1 0 0 1 -1 1 1 1 0 0 1 -1-1 1 1 0 0 1 1-1 1 1 0 0 1 1 1zm-1-2s-2 0-2 2h-4s-1 0-1 1v11c0 1 1 1 1 1h9v-3h-7v-1h7v-2h-7v-1h7v-2h-7v-1h8v1h3v-3c0-1-1-1-1-1h-4c0-2-2-2-2-2z" fill="#8b9cbe"/></g></svg>

<svg xmlns="http://www.w3.org/2000/svg" width="24" height="24"><defs><style id="current-color-scheme" type="text/css"></style></defs><path style="fill:currentColor;color:#f44336" d="M12 7v4l.25 2h1.5l.25-2V7zm0 7v2h2v-2z" transform="translate(4 4)"/><path style="fill:currentColor;color:#8b9cbe" d="M9 2a1 1 0 0 1-1 1 1 1 0 0 1-1-1 1 1 0 0 1 1-1 1 1 0 0 1 1 1zM8 0S6 0 6 2H2S1 2 1 3v11c0 1 1 1 1 1h9v-3H4v-1h7V9H4V8h7V6H4V5h8v1h3V3c0-1-1-1-1-1h-4c0-2-2-2-2-2z" transform="translate(4 4)"/></svg>
